X: 44
T:Polca Rhydowa
T:The Redowa Polka
M:2/4
L:1/8
Q:220
S:Various sources
R:Polka
A:Wales
Z:brian_martin12345@yahoo.com
K:G
G/B/d dd|d/e/d/c/ BB|G/A/B G/A/B|BA/G/ A2|
A/B/c cc|c/d/c/B/ AA|F/G/A F/G/A|AG/F/G2:||
G/B/d gd|dc c/B/c|F/A/c fe|ed d/^c/d|
G/B/d gd|dc c/B/c|F/A/c fe|de/f/"Fine" g2:||
GB/c/ B/c/B/c/|A^c/d/ c/d/c/d/|BG AB|ce ag|
GB/c/ B/c/B/c/|A^c/d/ c/d/c/d/|BG AB|cc"D.C." c2:||
